X:1
T:Title
%%score { ( 1 3 ) | ( 2 4 ) }
L:1/8
Q:1/4=84
M:6/8
K:G
V:1 treble nm="Grand Piano"
V:3 treble 
V:2 bass 
V:4 bass 
V:1
 .[Fd]3 [Fd]2 A/A/ | BAF D2 [A,DF] | [^CE]F[A,EG] [EG^c][EGc][CGB] | [GB][FA][=F^G] [^FA]3 | %4
w: J.~Lincoln~Hall * * *||||
 [Fd][Fd][Fd] ^c2 c | BBB G2 G | [Ge][Ge][Ge] [GB]2 [GB] | [^DB][Dc][DB] B2 B | BAG F2 F | %9
w: |||||
 F/-(3:2:2F/A/4GF [DF]3 | .[Fd]3 [Fd]2 A | BAF D3 | .[Ge]3 [Ge]2 B/B/ | cB_B =B2 d | d2 d d2 d | %15
w: ||||||
 [D=F^Gd]3- [DFGd]2 d | fdB AFG | [A,^CGA][CGB][EG^c] [Fd]3 |] %18
w: |||
V:2
 .[D,A,D]3 [D,A,D]2 A, | B,A,F, D,2 D, | z DA,, A,,A,,A,, | [D,D]2 [D,D] [D,D]3 | %4
 [D,A,][D,A,][D,A,] [F,_B,F]2 [F,B,F] | B,B,B, G,2 G, | [E,B,][E,B,][E,B,] [E,B,]2 [E,B,] | %7
 [B,,A,][B,,A,][B,,A,] [E,G,E]2 [E,G,E] | B,A,G, F,2 F, | [F,_B,^C][F,B,C][F,B,C] [B,,=B,]3 | %10
 .[D,A,]3 [D,A,]2 A, | B,A,F, D,3 | .[E,B,]3 [E,B,]2 B,/B,/ | CB,_B, .=B,3 | [D,A,D]3 [_B,,_B,]3 | %15
 [B,,D,=F,^G,]3- [B,,D,F,G,]2[K:treble] D | FDB, A,[K:bass]F,G, | A,,[A,,A,][A,,A,] [D,A,D]3 |] %18
V:3
 x6 | x6 | .A,3 z3 | x6 | x6 | x6 | x6 | x6 | x6 | x6 | x6 | x6 | x6 | x6 | F3 [D=F]3 | x6 | x6 | %17
 x6 |] %18
V:4
 x6 | x6 | .A,,3 z3 | x6 | x6 | x6 | x6 | x6 | x6 | x6 | x6 | x6 | x6 | x6 | x6 | x5[K:treble] x | %16
 x4[K:bass] x2 | x6 |] %18

